X: 21301
T: Le PANTALON
N: "HERZ QUADRILLES."
%R: _
B: "Edinburgh Repository of Music" v.2 p.130
F: http://digital.nls.uk/special-collections-of-printed-music/pageturner.cfm?id=87776133
Z: 2015 John Chambers <jc:trillian.mit.edu>
M: 2/4
L: 1/16
K: G
[|\
b4 g4 | d6 ^ce | d2^ce d2ce | d2g2 b4 |\
bc'aa a4 | abgg g4 | e2ag {g}fefd | g2b2g2z2 H|]
A4 B2^c2 | d2e2 f4 | age2 age2 | a2d'2 a4 |\
A4 B2^c2 | d2e2 f4 | age2 age2 | defg a2^a2 |]
[|\
b4 g4 | d6 ^ce | d2^ce d2ce | d2g2 b4 |\
bc'aa a4 | abgg g4 | e2ag {g}fefd | g2b2g2z2 |]
G4 c2e2 | G4 c2e2 | g=fd2 gfd2 | e>=fd>e c4 |\
Tg3^f/g/ c'2e'2 | Tg3^f/g/ c'2e'2 | b3c' d'c'd'b | c'3e'/d'/ c'4 |]"D.C."y

%%sep 2 1 500
%%sep 1 1 500

